X: 12230
T: Fair Wind, The
R: reel
M: 4/4
K: Gmajor
F|:~G3 F~G2GA|B~A3 BA.AF|~G3 F~G3A|BAGE EDDF:|
|:BddB ~G3 A|Bd.dB cAAG|Bd.dB GGGA|BAGE EDDF:|
G~E3 c2 cA|B2dB BAAF|G~E3 c2 cA|BAGE EDDF:|

